!!!!SEGMENT: pl-wnifc--13846--003_anonim--3-uciekla-mi-przepiorecka-w-proso.krn
!!!kernsource:
!!!cenid: 18xx:3225
!!!COM: Anonim
!!!COM-rismid: pe30004985
!!!CDT:
!!!CNT:
!!!GTL: Pieśni polskie i ruskie ludu galicyjskiego
!!!OTL: 3. Uciekła mi przepiórecka w proso
!!!PDT: 1833
!!!AGN:
!!!SMS-siglum: PL-Wnifc
!!!SMS-shelfmark: 13846
!!!SMS-shelfwork: 003 G
!!!SMS-variant:
!!!SMS-altvar:
!!!NIFC-rismid: 1001036720
!!!URL-scan: http://repozytorium.nifc.pl/skany/pl-wnifc-nut--13846
!!!ONB-nifc:
!!!OMD: Moderato.
!!!key: d
**kern	**kern	**dynam	**kern	**text
*part2	*part2	*part2	*part1	*part1
*staff3	*staff2	*	*staff1	*staff1
*I"Fortepian	*I"Fortepian	*	*I"Głos	*
*Ipiano	*Ipiano	*	*Ivox	*
*ICklav	*ICklav	*	*ICvox	*
*IGacmp	*IGacmp	*	*IGsolo	*
*clefF4	*clefG2	*	*clefG2	*
*k[b-]	*k[b-]	*	*k[b-]	*
*d:	*d:	*	*d:	*
*M3/8	*M3/8	*	*M3/8	*
=1-	=1-	=1-	=1-	=1-
*tremolo	*	*	*	*
!	!	!	!	!LO:TX:a:t=A.b.I42.
(16DD/LL 16AA/	16.a\LL 16.dd\	.	16.dd\	U-
16D/	.	.	.	.
.	32a\JJk 32ee\	.	32ee\	-cie-
16DD/ 16AA/	8a\L 8ff\	.	8ff\	-kła
16D/	.	.	.	.
16DD/ 16AA/	8a\J 8ff\	.	8ff\	mi
16D/JJ)	.	.	.	.
=2	=2	=2	=2	=2
(16DD/LL 16AA/	16a\'LL 16gg\	.	16gg\	prze-
16D/	16a\'JJ 16ff\	.	16ff\	-pió-
16DD/ 16AA/	8a\'L 8ee\	.	8ee\	-re-
16D/	.	.	.	.
16DD/ 16AA/	8a\'J 8dd\	.	8dd\	-cka
16D/JJ)	.	.	.	.
=3	=3	=3	=3	=3
(16DD/LL 16AA/	4g\^< 4a\ 4cc#X\ 4ee\	.	4ee\	w_pro-
16D/	.	.	.	.
16DD/ 16AA/	.	.	.	.
16D/	.	.	.	.
16DD/ 16AA/	8aa\	.	8aa\	-so
16D/JJ)	.	.	.	.
!!LO:LB:g=original
=4	=4	=4	=4	=4
(16DD/LL 16AA/	4g\^< 4a\ 4cc#X\ 4ee\	.	4ee\	w_pro-
16D/	.	.	.	.
16DD/ 16AA/	.	.	.	.
16D/	.	.	.	.
16DD/ 16AA/	8aa\	.	8aa\	-so
16D/JJ)	.	.	.	.
=5	=5	=5	=5	=5
(16DD/LL 16AA/	16f/LL 16a/ 16dd/	.	16dd\	a
16D/	16cc#X\JJ 16ee\	.	16ee\	ja
16DD/ 16AA/	8dd\ 8ff\	.	8ff\	za
16D/	.	.	.	.
16DD/ 16AA/	8a\ 8ff\	.	8ff\	nią
16D/JJ)	.	.	.	.
=6	=6	=6	=6	=6
(16DD/LL 16AA/	(>16a\LL 16gg\	.	16gg\	nie-
16D/	16ff\JJ)	.	16ff\	-bo-
*	*^	*	*	*
16DD/ 16AA/	(<16ee/LL	8a\	.	(16ee\LL	-ra-
16D/	16dd/JJ)	.	.	16dd\JJ)	.
16DD/ 16AA/	(<16cc#X/LL	8g\ 8a\	.	(16cc#X\LL	cek
16D/JJ)	16ee/JJ)	.	.	16ee\JJ)	.
*	*v	*v	*	*	*
!!LO:LB:g=original
=7	=7	=7	=7	=7
(16DD/LL 16AA/	4f\ 4a\ 4dd\	.	4dd\	bo-
16D/	.	.	.	.
16DD/ 16AA/	.	.	.	.
16D/	.	.	.	.
16DD/ 16AA/	8f\ 8a\ 8dd\	.	8dd\	-so
16D/JJ)	.	.	.	.
=8	=8	=8	=8	=8
(16DD/LL 16AA/	4f\ 4a\ 4dd\	.	4dd\	bo-
16D/	.	.	.	.
16DD/ 16AA/	.	.	.	.
16D/	.	.	.	.
16DD/ 16AA/	8f\ 8a\ 8dd\	.	8dd\	-so
16D/JJ)	.	.	.	.
*Xtremolo	*	*	*	*
!!LO:LB:g=original
==	==	==	==	==
*-	*-	*-	*-	*-
!!!system-decoration: s1,{(s2,s3)}
!!!RDF**kern: < = below
!!!RDF**kern: > = above
!!!ENC: Marta Chmielewska
!!!END: 2021-11-09
